svg/200/rounded/currency_rupee-fill.svg

<svg xmlns="http://www.w3.org/2000/svg" width="48" height="48" viewBox="0 -960 960 960"><path d="m544.231-164.384-233.493-243.29q-2.892-3.634-4.507-7.211-1.616-3.576-1.616-7.551v-14.231q0-9.916 6.613-16.625Q317.84-460 327.615-460H420q63.154 0 114.615-39.692 51.462-39.693 52.308-117.231H275.385q-6.539 0-10.962-4.485T260-632.524q0-6.63 4.423-10.899 4.423-4.269 10.962-4.269h310.384q-10.692-52.616-57.094-87.077Q482.274-769.231 420-769.231H275.385q-6.539 0-10.962-4.485T260-784.831q0-6.631 4.423-10.9T275.385-800h409.23q6.539 0 10.962 4.485T700-784.4q0 6.631-4.423 10.9t-10.962 4.269h-153.23q33 17.692 55.923 51.769 22.923 34.077 29.154 69.77h68.153q6.539 0 10.962 4.485T700-632.092q0 6.63-4.423 10.9-4.423 4.269-10.962 4.269h-67.692q-.308 87.923-59.278 137.808Q498.674-429.231 420-429.231h-86.615l233.308 243.077q7.846 7.846 3.837 17Q566.522-160 555.616-160q-3.369 0-6.018-.846-2.648-.846-5.367-3.538Z"/></svg>

<svg xmlns="http://www.w3.org/2000/svg" width="48" height="48" viewBox="0 -960 960 960"><path d="M544.23-164.38 310.74-407.67q-2.89-3.64-4.51-7.21-1.61-3.58-1.61-7.56v-14.23q0-9.91 6.61-16.62 6.61-6.71 16.39-6.71H420q63.15 0 114.62-39.69 51.46-39.69 52.3-117.23H275.38q-6.53 0-10.96-4.49-4.42-4.48-4.42-11.11 0-6.63 4.42-10.9 4.43-4.27 10.96-4.27h310.39q-10.69-52.62-57.09-87.08-46.41-34.46-108.68-34.46H275.38q-6.53 0-10.96-4.49-4.42-4.48-4.42-11.11 0-6.63 4.42-10.9 4.43-4.27 10.96-4.27h409.24q6.53 0 10.96 4.48 4.42 4.49 4.42 11.12 0 6.63-4.42 10.9-4.43 4.27-10.96 4.27H531.38q33 17.69 55.93 51.77 22.92 34.08 29.15 69.77h68.16q6.53 0 10.96 4.48 4.42 4.49 4.42 11.12 0 6.63-4.42 10.9-4.43 4.27-10.96 4.27h-67.7q-.3 87.92-59.28 137.8-58.97 49.89-137.64 49.89h-86.62l233.31 243.08q7.85 7.84 3.84 17-4.01 9.15-14.91 9.15-3.37 0-6.02-.85-2.65-.84-5.37-3.53Z"/></svg>
